build/img/icons/ruler.svg

<svg width="139" height="140" viewBox="0 0 139 140" fill="none" xmlns="http://www.w3.org/2000/svg">
<path d="M127.771 94.6116L100.253 67.094L127.767 39.5806C128.574 38.7742 129.215 37.8165 129.652 36.7624C130.089 35.7084 130.314 34.5785 130.315 33.4373C130.315 32.2962 130.091 31.1661 129.654 30.1117C129.218 29.0573 128.578 28.0992 127.771 27.2922L127.767 27.2835L112.216 11.7329C111.41 10.9255 110.452 10.2849 109.398 9.84775C108.344 9.41057 107.214 9.18534 106.073 9.18494C104.932 9.18453 103.802 9.40896 102.747 9.8454C101.693 10.2818 100.735 10.9217 99.9277 11.7285L99.9233 11.7329L72.41 39.2462L44.8923 11.7285C43.261 10.1041 41.0525 9.19211 38.7503 9.19211C36.4481 9.19211 34.2396 10.1041 32.6082 11.7285L11.2283 33.1041C9.59936 34.734 8.68433 36.944 8.68433 39.2483C8.68433 41.5527 9.59936 43.7627 11.2283 45.3926L38.7416 72.9059L8.68719 102.969V130.812H36.5306L66.5894 100.754L94.107 128.28C95.741 129.903 97.9505 130.814 100.253 130.814C102.556 130.814 104.766 129.903 106.4 128.28L127.771 106.9C129.4 105.27 130.315 103.06 130.315 100.756C130.315 98.4515 129.4 96.2415 127.771 94.6116ZM106.044 17.8576L121.638 33.4516L94.1287 60.9649L78.5347 45.3709L106.044 17.8576ZM34.7497 122.125H17.3747V106.527L44.8706 79.0349L60.8382 95.0112L34.7497 122.125ZM100.253 122.142L17.3747 39.2462L38.7546 17.8749L55.2088 34.3247L45.4266 44.1112L51.573 50.2532L61.3508 40.4711L79.2905 58.4108L69.4997 68.1842L75.6504 74.3263L85.4326 64.5442L103.372 82.4839L93.5901 92.2616L99.7322 98.4081L109.514 88.6303L121.633 100.754L100.253 122.142Z" fill="#C4C4C4" fill-opacity="0.2"/>
</svg>

<svg width="139" height="140" fill="none" xmlns="http://www.w3.org/2000/svg">
    <path d="m127.771 94.612-27.518-27.518 27.514-27.513a8.69 8.69 0 0 0 .004-12.289l-.004-.009-15.551-15.55a8.682 8.682 0 0 0-9.469-1.888 8.693 8.693 0 0 0-2.82 1.883l-.004.005L72.41 39.246 44.892 11.728a8.705 8.705 0 0 0-12.284 0l-21.38 21.376a8.692 8.692 0 0 0 0 12.289l27.514 27.513-30.055 30.063v27.843h27.844l30.058-30.058 27.518 27.526a8.722 8.722 0 0 0 12.293 0l21.371-21.38a8.692 8.692 0 0 0 0-12.288zm-21.727-76.754 15.594 15.594-27.51 27.513L78.536 45.37l27.509-27.513zM34.75 122.125H17.375v-15.598L44.87 79.035 60.838 95.01 34.75 122.125zm65.503.017L17.375 39.246l21.38-21.371 16.454 16.45-9.782 9.786 6.146 6.142 9.778-9.782 17.94 17.94-9.791 9.773 6.15 6.142 9.783-9.782 17.939 17.94-9.782 9.778 6.142 6.146 9.782-9.778 12.119 12.124-21.38 21.388z" fill="#C4C4C4" fill-opacity=".2"/>
</svg>
